X:186
T: ICH WEISS EINN JAEGER
N: Z0185
O: Europa, Mitteleuropa, Deutschland, Schlesien
R: Soldaten -, Jaeger - Lied
M: 6/8
L: 1/16
K: Bb
F2 | B4d2c2c2B2 | A4B2c6 |
B3cd2d3cB2 | c6-c4
d2 | d2e2f2f2e2d2 | c2e2e2e6 |
d2d2d2d2c2B2 | A2c2c2c6 |
B3cd2d2c2B2 | B6-B4

@@@ Tune index: 9944
